app/dist/common/images/iflytek-co-ltd.svg

<svg height="18" viewBox="0 0 18 18" width="18" xmlns="http://www.w3.org/2000/svg"><path d="m0 0h18v18h-18z" fill="#f0f3fa"/><path d="m7 6.2-.16.2 2.12 3.28.13-.19zm.18-.2c.78-.86 1.6-1.57 2.22-2a17.06 17.06 0 0 0 -2.8 2.02v-.02h-.6l.24.37c-2.1 2.05-2.24 3.76-2.24 4.42 0 .9.68 2.21 2.31 2.21a6.84 6.84 0 0 0 3.69-1.31c-.4.27-1.85.99-3.1.99-1.26 0-2-.72-2-2 0-1.33.7-2.7 1.61-3.88l2.13 3.3c-1.1 1.4-1.92 1.67-2.5 1.85l-.14.05c.53 0 2.39 0 3.84-1.67l1.1 1.67h.54l-.88-1.34-.46-.7.09-.13 1.42 2.17h.54l-1.7-2.59.1-.2 1.88 2.79h.53l-2.15-3.23c.98-1.6 2.52-2.67 3.15-2.77a5.35 5.35 0 0 0 -4.23 2.43l-1.54-2.43h-.6l.96 1.5.89 1.4-.1.14-1.91-3.04h-.28z" fill="#001273" fill-rule="evenodd"/></svg>

<!-- by TradingView --><svg width="18" height="18" viewBox="0 0 18 18" xmlns="http://www.w3.org/2000/svg"><path fill="#F0F3FA" d="M0 0h18v18H0z"/><path fill-rule="evenodd" d="m7 6.2-.16.2 2.12 3.28.13-.19L7 6.2Zm.18-.2c.78-.86 1.6-1.57 2.22-2a17.06 17.06 0 0 0-2.8 2.02L6.6 6H6l.24.37C4.14 8.42 4 10.13 4 10.79c0 .9.68 2.21 2.31 2.21A6.84 6.84 0 0 0 10 11.69c-.4.27-1.85.99-3.1.99-1.26 0-2-.72-2-2 0-1.33.7-2.7 1.61-3.88l2.13 3.3c-1.1 1.4-1.92 1.67-2.5 1.85L6 12c.53 0 2.39 0 3.84-1.67l1.1 1.67h.54l-.88-1.34-.46-.7.09-.13L11.65 12h.54l-1.7-2.59.1-.2L12.47 12H13l-2.15-3.23C11.83 7.17 13.37 6.1 14 6a5.35 5.35 0 0 0-4.23 2.43L8.23 6h-.6l.96 1.5.89 1.4-.1.14L7.47 6h-.28Z" fill="#001273"/></svg>
